SF_Symbols/square.grid.3x3.svg

<?xml version="1.0" encoding="UTF-8"?>
<svg xmlns="http://www.w3.org/2000/svg" xmlns:xlink="http://www.w3.org/1999/xlink" width="24" height="24" viewBox="0 0 24 24" version="1.1">
<g id="surface1">
<path style=" stroke:none;fill-rule:nonzero;fill:rgb(100%,100%,100%);fill-opacity:1;" d="M 2.53125 7.910156 L 5.121094 7.910156 C 5.761719 7.910156 6.257812 7.730469 6.609375 7.371094 C 6.96875 7.011719 7.148438 6.5 7.148438 5.835938 L 7.148438 3.339844 C 7.148438 2.683594 6.96875 2.175781 6.609375 1.816406 C 6.257812 1.449219 5.761719 1.265625 5.121094 1.265625 L 2.53125 1.265625 C 1.890625 1.265625 1.390625 1.449219 1.03125 1.816406 C 0.679688 2.175781 0.503906 2.683594 0.503906 3.339844 L 0.503906 5.835938 C 0.503906 6.5 0.679688 7.011719 1.03125 7.371094 C 1.390625 7.730469 1.890625 7.910156 2.53125 7.910156 Z M 2.753906 6.304688 C 2.542969 6.304688 2.382812 6.25 2.273438 6.140625 C 2.171875 6.03125 2.121094 5.863281 2.121094 5.636719 L 2.121094 3.539062 C 2.121094 3.320312 2.171875 3.15625 2.273438 3.046875 C 2.382812 2.9375 2.542969 2.882812 2.753906 2.882812 L 4.898438 2.882812 C 5.101562 2.882812 5.257812 2.9375 5.367188 3.046875 C 5.484375 3.15625 5.542969 3.320312 5.542969 3.539062 L 5.542969 5.636719 C 5.542969 5.863281 5.484375 6.03125 5.367188 6.140625 C 5.257812 6.25 5.101562 6.304688 4.898438 6.304688 Z M 10.6875 7.910156 L 13.289062 7.910156 C 13.929688 7.910156 14.425781 7.730469 14.777344 7.371094 C 15.128906 7.011719 15.304688 6.5 15.304688 5.835938 L 15.304688 3.339844 C 15.304688 2.683594 15.128906 2.175781 14.777344 1.816406 C 14.425781 1.449219 13.929688 1.265625 13.289062 1.265625 L 10.6875 1.265625 C 10.046875 1.265625 9.550781 1.449219 9.199219 1.816406 C 8.847656 2.175781 8.671875 2.683594 8.671875 3.339844 L 8.671875 5.835938 C 8.671875 6.5 8.847656 7.011719 9.199219 7.371094 C 9.550781 7.730469 10.046875 7.910156 10.6875 7.910156 Z M 10.910156 6.304688 C 10.699219 6.304688 10.539062 6.25 10.429688 6.140625 C 10.328125 6.03125 10.277344 5.863281 10.277344 5.636719 L 10.277344 3.539062 C 10.277344 3.320312 10.328125 3.15625 10.429688 3.046875 C 10.539062 2.9375 10.699219 2.882812 10.910156 2.882812 L 13.066406 2.882812 C 13.269531 2.882812 13.425781 2.9375 13.535156 3.046875 C 13.644531 3.15625 13.699219 3.320312 13.699219 3.539062 L 13.699219 5.636719 C 13.699219 5.863281 13.644531 6.03125 13.535156 6.140625 C 13.425781 6.25 13.269531 6.304688 13.066406 6.304688 Z M 18.867188 7.910156 L 21.457031 7.910156 C 22.097656 7.910156 22.59375 7.730469 22.945312 7.371094 C 23.304688 7.011719 23.484375 6.5 23.484375 5.835938 L 23.484375 3.339844 C 23.484375 2.683594 23.304688 2.175781 22.945312 1.816406 C 22.59375 1.449219 22.097656 1.265625 21.457031 1.265625 L 18.867188 1.265625 C 18.226562 1.265625 17.726562 1.449219 17.367188 1.816406 C 17.015625 2.175781 16.839844 2.683594 16.839844 3.339844 L 16.839844 5.835938 C 16.839844 6.5 17.015625 7.011719 17.367188 7.371094 C 17.726562 7.730469 18.226562 7.910156 18.867188 7.910156 Z M 19.089844 6.304688 C 18.878906 6.304688 18.71875 6.25 18.609375 6.140625 C 18.5 6.03125 18.445312 5.863281 18.445312 5.636719 L 18.445312 3.539062 C 18.445312 3.320312 18.5 3.15625 18.609375 3.046875 C 18.71875 2.9375 18.878906 2.882812 19.089844 2.882812 L 21.234375 2.882812 C 21.4375 2.882812 21.59375 2.9375 21.703125 3.046875 C 21.8125 3.15625 21.867188 3.320312 21.867188 3.539062 L 21.867188 5.636719 C 21.867188 5.863281 21.8125 6.03125 21.703125 6.140625 C 21.59375 6.25 21.4375 6.304688 21.234375 6.304688 Z M 2.53125 15.84375 L 5.121094 15.84375 C 5.761719 15.84375 6.257812 15.664062 6.609375 15.304688 C 6.96875 14.945312 7.148438 14.4375 7.148438 13.78125 L 7.148438 11.273438 C 7.148438 10.609375 6.96875 10.097656 6.609375 9.738281 C 6.257812 9.378906 5.761719 9.199219 5.121094 9.199219 L 2.53125 9.199219 C 1.890625 9.199219 1.390625 9.378906 1.03125 9.738281 C 0.679688 10.097656 0.503906 10.609375 0.503906 11.273438 L 0.503906 13.78125 C 0.503906 14.4375 0.679688 14.945312 1.03125 15.304688 C 1.390625 15.664062 1.890625 15.84375 2.53125 15.84375 Z M 2.753906 14.238281 C 2.542969 14.238281 2.382812 14.183594 2.273438 14.074219 C 2.171875 13.957031 2.121094 13.789062 2.121094 13.570312 L 2.121094 11.460938 C 2.121094 11.25 2.171875 11.089844 2.273438 10.980469 C 2.382812 10.863281 2.542969 10.804688 2.753906 10.804688 L 4.898438 10.804688 C 5.101562 10.804688 5.257812 10.863281 5.367188 10.980469 C 5.484375 11.089844 5.542969 11.25 5.542969 11.460938 L 5.542969 13.570312 C 5.542969 13.789062 5.484375 13.957031 5.367188 14.074219 C 5.257812 14.183594 5.101562 14.238281 4.898438 14.238281 Z M 10.6875 15.84375 L 13.289062 15.84375 C 13.929688 15.84375 14.425781 15.664062 14.777344 15.304688 C 15.128906 14.945312 15.304688 14.4375 15.304688 13.78125 L 15.304688 11.273438 C 15.304688 10.609375 15.128906 10.097656 14.777344 9.738281 C 14.425781 9.378906 13.929688 9.199219 13.289062 9.199219 L 10.6875 9.199219 C 10.046875 9.199219 9.550781 9.378906 9.199219 9.738281 C 8.847656 10.097656 8.671875 10.609375 8.671875 11.273438 L 8.671875 13.78125 C 8.671875 14.4375 8.847656 14.945312 9.199219 15.304688 C 9.550781 15.664062 10.046875 15.84375 10.6875 15.84375 Z M 10.910156 14.238281 C 10.699219 14.238281 10.539062 14.183594 10.429688 14.074219 C 10.328125 13.957031 10.277344 13.789062 10.277344 13.570312 L 10.277344 11.460938 C 10.277344 11.25 10.328125 11.089844 10.429688 10.980469 C 10.539062 10.863281 10.699219 10.804688 10.910156 10.804688 L 13.066406 10.804688 C 13.269531 10.804688 13.425781 10.863281 13.535156 10.980469 C 13.644531 11.089844 13.699219 11.25 13.699219 11.460938 L 13.699219 13.570312 C 13.699219 13.789062 13.644531 13.957031 13.535156 14.074219 C 13.425781 14.183594 13.269531 14.238281 13.066406 14.238281 Z M 18.867188 15.84375 L 21.457031 15.84375 C 22.097656 15.84375 22.59375 15.664062 22.945312 15.304688 C 23.304688 14.945312 23.484375 14.4375 23.484375 13.78125 L 23.484375 11.273438 C 23.484375 10.609375 23.304688 10.097656 22.945312 9.738281 C 22.59375 9.378906 22.097656 9.199219 21.457031 9.199219 L 18.867188 9.199219 C 18.226562 9.199219 17.726562 9.378906 17.367188 9.738281 C 17.015625 10.097656 16.839844 10.609375 16.839844 11.273438 L 16.839844 13.78125 C 16.839844 14.4375 17.015625 14.945312 17.367188 15.304688 C 17.726562 15.664062 18.226562 15.84375 18.867188 15.84375 Z M 19.089844 14.238281 C 18.878906 14.238281 18.71875 14.183594 18.609375 14.074219 C 18.5 13.957031 18.445312 13.789062 18.445312 13.570312 L 18.445312 11.460938 C 18.445312 11.25 18.5 11.089844 18.609375 10.980469 C 18.71875 10.863281 18.878906 10.804688 19.089844 10.804688 L 21.234375 10.804688 C 21.4375 10.804688 21.59375 10.863281 21.703125 10.980469 C 21.8125 11.089844 21.867188 11.25 21.867188 11.460938 L 21.867188 13.570312 C 21.867188 13.789062 21.8125 13.957031 21.703125 14.074219 C 21.59375 14.183594 21.4375 14.238281 21.234375 14.238281 Z M 2.53125 23.777344 L 5.121094 23.777344 C 5.761719 23.777344 6.257812 23.597656 6.609375 23.238281 C 6.96875 22.878906 7.148438 22.367188 7.148438 21.703125 L 7.148438 19.207031 C 7.148438 18.542969 6.96875 18.03125 6.609375 17.671875 C 6.257812 17.3125 5.761719 17.132812 5.121094 17.132812 L 2.53125 17.132812 C 1.890625 17.132812 1.390625 17.3125 1.03125 17.671875 C 0.679688 18.03125 0.503906 18.542969 0.503906 19.207031 L 0.503906 21.703125 C 0.503906 22.367188 0.679688 22.878906 1.03125 23.238281 C 1.390625 23.597656 1.890625 23.777344 2.53125 23.777344 Z M 2.753906 22.160156 C 2.542969 22.160156 2.382812 22.105469 2.273438 21.996094 C 2.171875 21.886719 2.121094 21.722656 2.121094 21.503906 L 2.121094 19.40625 C 2.121094 19.179688 2.171875 19.011719 2.273438 18.902344 C 2.382812 18.792969 2.542969 18.738281 2.753906 18.738281 L 4.898438 18.738281 C 5.101562 18.738281 5.257812 18.792969 5.367188 18.902344 C 5.484375 19.011719 5.542969 19.179688 5.542969 19.40625 L 5.542969 21.503906 C 5.542969 21.722656 5.484375 21.886719 5.367188 21.996094 C 5.257812 22.105469 5.101562 22.160156 4.898438 22.160156 Z M 10.6875 23.777344 L 13.289062 23.777344 C 13.929688 23.777344 14.425781 23.597656 14.777344 23.238281 C 15.128906 22.878906 15.304688 22.367188 15.304688 21.703125 L 15.304688 19.207031 C 15.304688 18.542969 15.128906 18.03125 14.777344 17.671875 C 14.425781 17.3125 13.929688 17.132812 13.289062 17.132812 L 10.6875 17.132812 C 10.046875 17.132812 9.550781 17.3125 9.199219 17.671875 C 8.847656 18.03125 8.671875 18.542969 8.671875 19.207031 L 8.671875 21.703125 C 8.671875 22.367188 8.847656 22.878906 9.199219 23.238281 C 9.550781 23.597656 10.046875 23.777344 10.6875 23.777344 Z M 10.910156 22.160156 C 10.699219 22.160156 10.539062 22.105469 10.429688 21.996094 C 10.328125 21.886719 10.277344 21.722656 10.277344 21.503906 L 10.277344 19.40625 C 10.277344 19.179688 10.328125 19.011719 10.429688 18.902344 C 10.539062 18.792969 10.699219 18.738281 10.910156 18.738281 L 13.066406 18.738281 C 13.269531 18.738281 13.425781 18.792969 13.535156 18.902344 C 13.644531 19.011719 13.699219 19.179688 13.699219 19.40625 L 13.699219 21.503906 C 13.699219 21.722656 13.644531 21.886719 13.535156 21.996094 C 13.425781 22.105469 13.269531 22.160156 13.066406 22.160156 Z M 18.867188 23.777344 L 21.457031 23.777344 C 22.097656 23.777344 22.59375 23.597656 22.945312 23.238281 C 23.304688 22.878906 23.484375 22.367188 23.484375 21.703125 L 23.484375 19.207031 C 23.484375 18.542969 23.304688 18.03125 22.945312 17.671875 C 22.59375 17.3125 22.097656 17.132812 21.457031 17.132812 L 18.867188 17.132812 C 18.226562 17.132812 17.726562 17.3125 17.367188 17.671875 C 17.015625 18.03125 16.839844 18.542969 16.839844 19.207031 L 16.839844 21.703125 C 16.839844 22.367188 17.015625 22.878906 17.367188 23.238281 C 17.726562 23.597656 18.226562 23.777344 18.867188 23.777344 Z M 19.089844 22.160156 C 18.878906 22.160156 18.71875 22.105469 18.609375 21.996094 C 18.5 21.886719 18.445312 21.722656 18.445312 21.503906 L 18.445312 19.40625 C 18.445312 19.179688 18.5 19.011719 18.609375 18.902344 C 18.71875 18.792969 18.878906 18.738281 19.089844 18.738281 L 21.234375 18.738281 C 21.4375 18.738281 21.59375 18.792969 21.703125 18.902344 C 21.8125 19.011719 21.867188 19.179688 21.867188 19.40625 L 21.867188 21.503906 C 21.867188 21.722656 21.8125 21.886719 21.703125 21.996094 C 21.59375 22.105469 21.4375 22.160156 21.234375 22.160156 Z M 19.089844 22.160156 "/>
</g>
</svg>

<svg xmlns="http://www.w3.org/2000/svg" width="24" height="24"><path style="stroke:none;fill-rule:nonzero;fill:#fff;fill-opacity:1" d="M2.531 7.91h2.59c.64 0 1.137-.18 1.488-.539.36-.36.54-.871.54-1.535V3.34c0-.656-.18-1.164-.54-1.524-.351-.367-.847-.55-1.488-.55h-2.59c-.64 0-1.14.183-1.5.55-.351.36-.527.868-.527 1.524v2.496c0 .664.176 1.176.527 1.535.36.36.86.54 1.5.54Zm.223-1.605c-.211 0-.371-.055-.48-.164-.102-.11-.153-.278-.153-.504V3.539c0-.219.05-.383.152-.492.11-.11.27-.164.48-.164h2.145c.204 0 .36.054.47.164.116.11.175.273.175.492v2.098c0 .226-.059.394-.176.504-.11.109-.265.164-.469.164Zm7.933 1.605h2.602c.64 0 1.137-.18 1.488-.539.352-.36.528-.871.528-1.535V3.34c0-.656-.176-1.164-.528-1.524-.351-.367-.847-.55-1.488-.55h-2.601c-.641 0-1.137.183-1.489.55-.351.36-.527.868-.527 1.524v2.496c0 .664.176 1.176.527 1.535.352.36.848.54 1.489.54Zm.223-1.605c-.21 0-.37-.055-.48-.164-.102-.11-.153-.278-.153-.504V3.539c0-.219.051-.383.153-.492.11-.11.27-.164.48-.164h2.156c.204 0 .36.054.47.164.109.11.163.273.163.492v2.098c0 .226-.054.394-.164.504-.11.109-.265.164-.469.164Zm7.957 1.605h2.59c.64 0 1.137-.18 1.488-.539.36-.36.54-.871.54-1.535V3.34c0-.656-.18-1.164-.54-1.524-.351-.367-.847-.55-1.488-.55h-2.59c-.64 0-1.14.183-1.5.55-.351.36-.527.868-.527 1.524v2.496c0 .664.176 1.176.527 1.535.36.36.86.54 1.5.54Zm.223-1.605c-.211 0-.371-.055-.48-.164-.11-.11-.165-.278-.165-.504V3.539c0-.219.055-.383.164-.492.11-.11.27-.164.48-.164h2.145c.203 0 .36.054.47.164.108.11.163.273.163.492v2.098c0 .226-.055.394-.164.504-.11.109-.265.164-.469.164ZM2.53 15.844h2.59c.64 0 1.137-.18 1.488-.54.36-.359.54-.867.54-1.523v-2.508c0-.664-.18-1.175-.54-1.535-.351-.36-.847-.539-1.488-.539h-2.59c-.64 0-1.14.18-1.5.54-.351.359-.527.87-.527 1.534v2.508c0 .656.176 1.164.527 1.524.36.36.86.539 1.5.539Zm.223-1.606c-.211 0-.371-.054-.48-.164-.102-.117-.153-.285-.153-.504v-2.11c0-.21.05-.37.152-.48.11-.117.27-.175.48-.175h2.145c.204 0 .36.058.47.175.116.11.175.27.175.48v2.11c0 .22-.059.387-.176.504-.11.11-.265.164-.469.164Zm7.933 1.606h2.602c.64 0 1.137-.18 1.488-.54.352-.359.528-.867.528-1.523v-2.508c0-.664-.176-1.175-.528-1.535-.351-.36-.847-.539-1.488-.539h-2.601c-.641 0-1.137.18-1.489.54-.351.359-.527.87-.527 1.534v2.508c0 .656.176 1.164.527 1.524.352.36.848.539 1.489.539Zm.223-1.606c-.21 0-.37-.054-.48-.164-.102-.117-.153-.285-.153-.504v-2.11c0-.21.051-.37.153-.48.11-.117.27-.175.48-.175h2.156c.204 0 .36.058.47.175.109.11.163.27.163.48v2.11c0 .22-.054.387-.164.504-.11.11-.265.164-.469.164Zm7.957 1.606h2.59c.64 0 1.137-.18 1.488-.54.36-.359.54-.867.54-1.523v-2.508c0-.664-.18-1.175-.54-1.535-.351-.36-.847-.539-1.488-.539h-2.59c-.64 0-1.14.18-1.5.54-.351.359-.527.87-.527 1.534v2.508c0 .656.176 1.164.527 1.524.36.36.86.539 1.5.539Zm.223-1.606c-.211 0-.371-.054-.48-.164-.11-.117-.165-.285-.165-.504v-2.11c0-.21.055-.37.164-.48.11-.117.27-.175.48-.175h2.145c.203 0 .36.058.47.175.108.11.163.27.163.48v2.11c0 .22-.055.387-.164.504-.11.11-.265.164-.469.164ZM2.53 23.778h2.59c.64 0 1.137-.18 1.488-.54.36-.36.54-.87.54-1.535v-2.496c0-.664-.18-1.176-.54-1.535-.351-.36-.847-.54-1.488-.54h-2.59c-.64 0-1.14.18-1.5.54-.351.36-.527.871-.527 1.535v2.496c0 .664.176 1.176.527 1.535.36.36.86.54 1.5.54Zm.223-1.618c-.211 0-.371-.055-.48-.164-.102-.11-.153-.273-.153-.492v-2.098c0-.226.05-.394.152-.504.11-.109.27-.164.48-.164h2.145c.204 0 .36.055.47.164.116.11.175.278.175.504v2.098c0 .219-.059.383-.176.492-.11.11-.265.164-.469.164Zm7.933 1.617h2.602c.64 0 1.137-.18 1.488-.539.352-.36.528-.87.528-1.535v-2.496c0-.664-.176-1.176-.528-1.535-.351-.36-.847-.54-1.488-.54h-2.601c-.641 0-1.137.18-1.489.54-.351.36-.527.871-.527 1.535v2.496c0 .664.176 1.176.527 1.535.352.36.848.54 1.489.54Zm.223-1.617c-.21 0-.37-.055-.48-.164-.102-.11-.153-.273-.153-.492v-2.098c0-.226.051-.394.153-.504.11-.109.27-.164.48-.164h2.156c.204 0 .36.055.47.164.109.11.163.278.163.504v2.098c0 .219-.054.383-.164.492-.11.11-.265.164-.469.164Zm7.957 1.617h2.59c.64 0 1.137-.18 1.488-.539.36-.36.54-.87.54-1.535v-2.496c0-.664-.18-1.176-.54-1.535-.351-.36-.847-.54-1.488-.54h-2.59c-.64 0-1.14.18-1.5.54-.351.36-.527.871-.527 1.535v2.496c0 .664.176 1.176.527 1.535.36.36.86.54 1.5.54Zm.223-1.617c-.211 0-.371-.055-.48-.164-.11-.11-.165-.273-.165-.492v-2.098c0-.226.055-.394.164-.504.11-.109.27-.164.48-.164h2.145c.203 0 .36.055.47.164.108.11.163.278.163.504v2.098c0 .219-.055.383-.164.492-.11.11-.265.164-.469.164Zm0 0"/></svg>
